icons/numix/32x32/mimetypes/text-x-sql.svg

<?xml version="1.0" encoding="UTF-8" standalone="no"?>
<svg
   xmlns:dc="http://purl.org/dc/elements/1.1/"
   xmlns:cc="http://creativecommons.org/ns#"
   xmlns:rdf="http://www.w3.org/1999/02/22-rdf-syntax-ns#"
   xmlns:svg="http://www.w3.org/2000/svg"
   xmlns="http://www.w3.org/2000/svg"
   xmlns:sodipodi="http://sodipodi.sourceforge.net/DTD/sodipodi-0.dtd"
   xmlns:inkscape="http://www.inkscape.org/namespaces/inkscape"
   width="32"
   height="32"
   viewBox="0 0 32 32"
   id="svg2"
   version="1.1"
   inkscape:version="0.48.5 r10040"
   sodipodi:docname="text-x-sql.svg">
  <metadata
     id="metadata32">
    <rdf:RDF>
      <cc:Work
         rdf:about="">
        <dc:format>image/svg+xml</dc:format>
        <dc:type
           rdf:resource="http://purl.org/dc/dcmitype/StillImage" />
      </cc:Work>
    </rdf:RDF>
  </metadata>
  <defs
     id="defs30" />
  <sodipodi:namedview
     pagecolor="#ffffff"
     bordercolor="#666666"
     borderopacity="1"
     objecttolerance="10"
     gridtolerance="10"
     guidetolerance="10"
     inkscape:pageopacity="0"
     inkscape:pageshadow="2"
     inkscape:window-width="1280"
     inkscape:window-height="970"
     id="namedview28"
     showgrid="true"
     inkscape:zoom="29.5"
     inkscape:cx="19.318584"
     inkscape:cy="15.200423"
     inkscape:window-x="0"
     inkscape:window-y="0"
     inkscape:window-maximized="1"
     inkscape:current-layer="svg2">
    <inkscape:grid
       type="xygrid"
       id="grid3028" />
  </sodipodi:namedview>
  <path
     style="fill:#a33639;fill-opacity:1"
     d="M 5.335888,2.967e-4 C 4.648414,3.117e-4 4,0.6767877 4,1.394031 L 4,30.606268 C 4,31.282757 4.687474,32 5.335888,32 l 21.327332,0 c 0.648414,0 1.335888,-0.717243 1.335888,-1.393732 L 28,8.9999995 19,-3e-7 z"
     id="path4-1"
     inkscape:connector-curvature="0"
     sodipodi:nodetypes="ssssssccs" />
  <path
     style="fill:#000000;fill-opacity:0.19599998"
     d="m 4,24 0,6.667969 C 4,31.316407 4.6875,32 5.332031,32 l 21.335938,0 C 27.3125,32 28,31.316407 28,30.667969 L 28,24 z"
     id="path18"
     inkscape:connector-curvature="0" />
  <g
     style="fill:#ffffff"
     id="g20"
     transform="matrix(1.0497949,0,0,1.1963234,-0.79671876,-4.5342351)">
    <path
       d="m 11.136719,28.273438 c 0.195312,0 0.351562,-0.01172 0.476562,-0.03906 0.132813,-0.03125 0.238281,-0.07031 0.3125,-0.121094 0.07422,-0.05078 0.125,-0.109375 0.148438,-0.171875 0.03125,-0.06641 0.04687,-0.132812 0.04687,-0.199218 0,-0.08594 -0.03516,-0.160157 -0.101563,-0.226563 -0.07031,-0.06641 -0.15625,-0.125 -0.261719,-0.171875 -0.109374,-0.05469 -0.226562,-0.101562 -0.359374,-0.140625 -0.128907,-0.04297 -0.261719,-0.08203 -0.394532,-0.117187 -0.175781,-0.04688 -0.355468,-0.09766 -0.542968,-0.15625 C 10.273438,26.875 10.101562,26.800781 9.945312,26.710938 9.792969,26.625 9.667969,26.515625 9.566406,26.386719 9.46875,26.253906 9.417969,26.089844 9.417969,25.894531 c 0,-0.382812 0.175781,-0.683593 0.527343,-0.902343 0.355469,-0.21875 0.84375,-0.324219 1.464844,-0.324219 0.355469,0 0.664063,0.02734 0.929688,0.08594 0.265625,0.05859 0.492187,0.121094 0.675781,0.191406 l -0.339844,0.632813 c -0.15625,-0.0625 -0.332031,-0.117187 -0.527343,-0.160156 -0.1875,-0.04687 -0.40625,-0.06641 -0.65625,-0.06641 -0.613282,0 -0.917969,0.15625 -0.917969,0.472657 0,0.07813 0.03125,0.148437 0.09375,0.210937 0.0625,0.05859 0.140625,0.109375 0.234375,0.160156 0.09766,0.04297 0.207031,0.08203 0.328125,0.117188 0.125,0.03516 0.246093,0.07031 0.367187,0.101562 0.179688,0.04688 0.367188,0.105469 0.5625,0.164063 0.199219,0.05859 0.382813,0.140625 0.542969,0.242187 0.171875,0.09766 0.308594,0.21875 0.414063,0.371094 0.105468,0.144532 0.160156,0.332032 0.160156,0.558594 0,0.382812 -0.179688,0.683594 -0.535156,0.894531 -0.351563,0.207031 -0.886719,0.3125 -1.605469,0.3125 -0.484375,0 -0.867188,-0.03516 -1.15625,-0.105469 -0.289063,-0.07422 -0.503907,-0.144531 -0.648438,-0.207031 l 0.339844,-0.664062 c 0.167969,0.07031 0.367187,0.136719 0.601563,0.199219 0.238281,0.0625 0.523437,0.09375 0.863281,0.09375"
       id="path22"
       inkscape:connector-curvature="0" />
    <path
       d="m 13.90625,26.832031 c 0,-0.707031 0.183594,-1.242187 0.554688,-1.601562 C 14.828125,24.867188 15.34375,24.6875 16,24.6875 c 0.683594,0 1.203125,0.179688 1.558594,0.542969 0.355468,0.359375 0.535156,0.894531 0.535156,1.601562 0,0.621094 -0.140625,1.109375 -0.421875,1.46875 -0.28125,0.351563 -0.6875,0.566407 -1.222656,0.644531 0.07031,0.109376 0.234375,0.199219 0.5,0.269532 0.269531,0.07813 0.632812,0.144531 1.097656,0.199218 L 17.804688,30 c -0.734376,-0.07031 -1.289063,-0.191406 -1.664063,-0.359375 -0.367187,-0.164063 -0.589844,-0.398437 -0.65625,-0.710937 -0.507813,-0.08594 -0.898437,-0.308594 -1.175781,-0.65625 C 14.039062,27.917969 13.90625,27.4375 13.90625,26.832031 m 1.171875,0 c 0,0.199219 0.01172,0.386719 0.03125,0.558594 0.02344,0.171875 0.06641,0.324219 0.128906,0.457031 0.07031,0.128906 0.164063,0.230469 0.28125,0.304688 0.121094,0.07813 0.28125,0.113281 0.480469,0.113281 0.195312,0 0.351562,-0.03516 0.46875,-0.113281 0.125,-0.07422 0.21875,-0.175782 0.28125,-0.304688 0.07031,-0.132812 0.113281,-0.285156 0.132812,-0.457031 0.02344,-0.171875 0.03906,-0.359375 0.03906,-0.558594 0,-0.199219 -0.01563,-0.386719 -0.03906,-0.558593 C 16.863281,26.097656 16.820312,25.945312 16.75,25.816406 16.6875,25.6875 16.597656,25.585938 16.480469,25.511719 16.359375,25.433594 16.199219,25.398438 16,25.398438 c -0.199219,0 -0.359375,0.03516 -0.480469,0.113281 -0.117187,0.07422 -0.210937,0.179687 -0.28125,0.3125 -0.0625,0.125 -0.105469,0.277343 -0.128906,0.449219 -0.01953,0.171874 -0.03125,0.359374 -0.03125,0.558593"
       id="path24"
       inkscape:connector-curvature="0" />
    <path
       d="m 22.667969,28.871094 -3.652344,0 0,-4.113282 1.164063,0 0,3.4375 2.488281,0 0,0.675782"
       id="path26"
       inkscape:connector-curvature="0" />
  </g>
  <path
     style="fill:#000000;fill-opacity:0.19599998"
     d="M 21,8.9999995 28,16 28,8.9999995 z"
     id="path6-4"
     inkscape:connector-curvature="0"
     sodipodi:nodetypes="cccc" />
  <path
     style="fill:#ffffff;fill-opacity:0.39200003"
     d="m 19.000306,2.967e-4 8.991594,8.9997028 -7.613262,0 c -0.672951,0 -1.378332,-0.7134896 -1.378332,-1.3864402 z"
     id="path8-6"
     inkscape:connector-curvature="0"
     sodipodi:nodetypes="ccssc" />
  <g
     style="fill:#ffffff"
     id="g10"
     transform="matrix(0.93772881,0,0,0.93772881,0.99633989,-0.2564076)">
    <path
       d="m 16,12 c -2.945312,0 -5.332031,0.746094 -5.332031,1.667969 l 0,1.332031 c 0,0.921875 2.386719,1.667969 5.332031,1.667969 2.945312,0 5.332031,-0.746094 5.332031,-1.667969 l 0,-1.332031 C 21.332031,12.746094 18.945312,12 16,12 z"
       id="path12"
       inkscape:connector-curvature="0" />
    <path
       d="m 15.984375,17.332031 c -2.390625,0 -4.402344,-0.488281 -5.082031,-1.164062 -0.160156,0.15625 -0.234375,0.324219 -0.234375,0.5 l 0,1.332031 c 0,0.921875 2.386719,1.667969 5.332031,1.667969 2.945312,0 5.332031,-0.746094 5.332031,-1.667969 l 0,-1.332031 c 0,-0.175781 -0.09375,-0.34375 -0.25,-0.5 -0.679687,0.675781 -2.710937,1.164062 -5.097656,1.164062 z"
       id="path14"
       inkscape:connector-curvature="0" />
    <path
       d="m 15.984375,20.332031 c -2.390625,0 -4.402344,-0.488281 -5.082031,-1.164062 -0.160156,0.15625 -0.234375,0.324219 -0.234375,0.5 l 0,1.332031 c 0,0.921875 2.386719,1.667969 5.332031,1.667969 2.945312,0 5.332031,-0.746094 5.332031,-1.667969 l 0,-1.332031 c 0,-0.175781 -0.09375,-0.34375 -0.25,-0.5 -0.679687,0.675781 -2.710937,1.164062 -5.097656,1.164062 z"
       id="path16"
       inkscape:connector-curvature="0" />
  </g>
</svg>

<svg width="32" xmlns="http://www.w3.org/2000/svg" height="32" viewBox="0 0 32 32" xmlns:xlink="http://www.w3.org/1999/xlink">
<path style="fill:#a33639" d="M 5.332031 0.667969 C 4.648438 0.667969 4 1.3125 4 2 L 4 30 C 4 30.648438 4.6875 31.332031 5.332031 31.332031 L 26.667969 31.332031 C 27.3125 31.332031 28 30.648438 28 30 L 28 9.332031 L 19.332031 0.667969 Z "/>
<path style="fill:#000;fill-opacity:.196" d="M 19.332031 8 L 19.375 8.042969 L 19.480469 8 Z M 20.667969 9.332031 L 28 16.667969 L 28 9.332031 Z "/>
<path style="fill:#fff;fill-opacity:.392" d="M 19.332031 0.667969 L 28 9.332031 L 20.667969 9.332031 C 20.019531 9.332031 19.332031 8.648438 19.332031 8 Z "/>
<g style="fill:#fff">
<path d="M 16 10.667969 C 13.054688 10.667969 10.667969 11.414062 10.667969 12.332031 L 10.667969 13.667969 C 10.667969 14.585938 13.054688 15.332031 16 15.332031 C 18.945312 15.332031 21.332031 14.585938 21.332031 13.667969 L 21.332031 12.332031 C 21.332031 11.414062 18.945312 10.667969 16 10.667969 Z "/>
<path d="M 15.984375 16 C 13.59375 16 11.582031 15.507812 10.902344 14.832031 C 10.742188 14.992188 10.667969 15.160156 10.667969 15.332031 L 10.667969 16.667969 C 10.667969 17.585938 13.054688 18.332031 16 18.332031 C 18.945312 18.332031 21.332031 17.585938 21.332031 16.667969 L 21.332031 15.332031 C 21.332031 15.160156 21.238281 14.992188 21.082031 14.832031 C 20.402344 15.507812 18.371094 16 15.984375 16 Z "/>
<path d="M 15.984375 19 C 13.59375 19 11.582031 18.507812 10.902344 17.832031 C 10.742188 17.992188 10.667969 18.160156 10.667969 18.332031 L 10.667969 19.667969 C 10.667969 20.585938 13.054688 21.332031 16 21.332031 C 18.945312 21.332031 21.332031 20.585938 21.332031 19.667969 L 21.332031 18.332031 C 21.332031 18.160156 21.238281 17.992188 21.082031 17.832031 C 20.402344 18.507812 18.371094 19 15.984375 19 Z "/>
</g>
<path style="fill:#000;fill-opacity:.196" d="M 4 23.332031 L 4 30 C 4 30.648438 4.6875 31.332031 5.332031 31.332031 L 26.667969 31.332031 C 27.3125 31.332031 28 30.648438 28 30 L 28 23.332031 Z "/>
<g style="fill:#fff">
<path d="M 11.136719 28.273438 C 11.332031 28.273438 11.488281 28.261719 11.613281 28.234375 C 11.746094 28.203125 11.851562 28.164062 11.925781 28.113281 C 12 28.0625 12.050781 28.003906 12.074219 27.941406 C 12.105469 27.875 12.121094 27.808594 12.121094 27.742188 C 12.121094 27.65625 12.085938 27.582031 12.019531 27.515625 C 11.949219 27.449219 11.863281 27.390625 11.757812 27.34375 C 11.648438 27.289062 11.53125 27.242188 11.398438 27.203125 C 11.269531 27.160156 11.136719 27.121094 11.003906 27.085938 C 10.828125 27.039062 10.648438 26.988281 10.460938 26.929688 C 10.273438 26.875 10.101562 26.800781 9.945312 26.710938 C 9.792969 26.625 9.667969 26.515625 9.566406 26.386719 C 9.46875 26.253906 9.417969 26.089844 9.417969 25.894531 C 9.417969 25.511719 9.59375 25.210938 9.945312 24.992188 C 10.300781 24.773438 10.789062 24.667969 11.410156 24.667969 C 11.765625 24.667969 12.074219 24.695312 12.339844 24.753906 C 12.605469 24.8125 12.832031 24.875 13.015625 24.945312 L 12.675781 25.578125 C 12.519531 25.515625 12.34375 25.460938 12.148438 25.417969 C 11.960938 25.371094 11.742188 25.351562 11.492188 25.351562 C 10.878906 25.351562 10.574219 25.507812 10.574219 25.824219 C 10.574219 25.902344 10.605469 25.972656 10.667969 26.035156 C 10.730469 26.09375 10.808594 26.144531 10.902344 26.195312 C 11 26.238281 11.109375 26.277344 11.230469 26.3125 C 11.355469 26.347656 11.476562 26.382812 11.597656 26.414062 C 11.777344 26.460938 11.964844 26.519531 12.160156 26.578125 C 12.359375 26.636719 12.542969 26.71875 12.703125 26.820312 C 12.875 26.917969 13.011719 27.039062 13.117188 27.191406 C 13.222656 27.335938 13.277344 27.523438 13.277344 27.75 C 13.277344 28.132812 13.097656 28.433594 12.742188 28.644531 C 12.390625 28.851562 11.855469 28.957031 11.136719 28.957031 C 10.652344 28.957031 10.269531 28.921875 9.980469 28.851562 C 9.691406 28.777344 9.476562 28.707031 9.332031 28.644531 L 9.671875 27.980469 C 9.839844 28.050781 10.039062 28.117188 10.273438 28.179688 C 10.511719 28.242188 10.796875 28.273438 11.136719 28.273438 "/>
<path d="M 13.90625 26.832031 C 13.90625 26.125 14.089844 25.589844 14.460938 25.230469 C 14.828125 24.867188 15.34375 24.6875 16 24.6875 C 16.683594 24.6875 17.203125 24.867188 17.558594 25.230469 C 17.914062 25.589844 18.09375 26.125 18.09375 26.832031 C 18.09375 27.453125 17.953125 27.941406 17.671875 28.300781 C 17.390625 28.652344 16.984375 28.867188 16.449219 28.945312 C 16.519531 29.054688 16.683594 29.144531 16.949219 29.214844 C 17.21875 29.292969 17.582031 29.359375 18.046875 29.414062 L 17.804688 30 C 17.070312 29.929688 16.515625 29.808594 16.140625 29.640625 C 15.773438 29.476562 15.550781 29.242188 15.484375 28.929688 C 14.976562 28.84375 14.585938 28.621094 14.308594 28.273438 C 14.039062 27.917969 13.90625 27.4375 13.90625 26.832031 M 15.078125 26.832031 C 15.078125 27.03125 15.089844 27.21875 15.109375 27.390625 C 15.132812 27.5625 15.175781 27.714844 15.238281 27.847656 C 15.308594 27.976562 15.402344 28.078125 15.519531 28.152344 C 15.640625 28.230469 15.800781 28.265625 16 28.265625 C 16.195312 28.265625 16.351562 28.230469 16.46875 28.152344 C 16.59375 28.078125 16.6875 27.976562 16.75 27.847656 C 16.820312 27.714844 16.863281 27.5625 16.882812 27.390625 C 16.90625 27.21875 16.921875 27.03125 16.921875 26.832031 C 16.921875 26.632812 16.90625 26.445312 16.882812 26.273438 C 16.863281 26.097656 16.820312 25.945312 16.75 25.816406 C 16.6875 25.6875 16.597656 25.585938 16.480469 25.511719 C 16.359375 25.433594 16.199219 25.398438 16 25.398438 C 15.800781 25.398438 15.640625 25.433594 15.519531 25.511719 C 15.402344 25.585938 15.308594 25.691406 15.238281 25.824219 C 15.175781 25.949219 15.132812 26.101562 15.109375 26.273438 C 15.089844 26.445312 15.078125 26.632812 15.078125 26.832031 "/>
<path d="M 22.667969 28.871094 L 19.015625 28.871094 L 19.015625 24.757812 L 20.179688 24.757812 L 20.179688 28.195312 L 22.667969 28.195312 L 22.667969 28.871094 "/>
</g>
</svg>
